src/images/wind.svg

<svg width="27" height="23" viewBox="0 0 27 23" fill="none" xmlns="http://www.w3.org/2000/svg">
<path d="M22.613 11.9696H0.554116C0.248022 11.9696 0 11.7343 0 11.4441C0 11.1539 0.248022 10.9186 0.554116 10.9186H22.5059C22.5405 10.9122 22.5764 10.9088 22.613 10.9088C24.4209 10.9088 25.8918 9.51405 25.8918 7.79965C25.8918 6.08524 24.4209 4.69039 22.613 4.69039C20.8051 4.69039 19.3343 6.08517 19.3343 7.79958C19.3343 8.08977 19.0863 8.32504 18.7802 8.32504C18.4741 8.32504 18.2261 8.08977 18.2261 7.79958C18.2261 5.50569 20.1941 3.63947 22.613 3.63947C25.032 3.63947 27 5.50569 27 7.79958C27 10.0572 25.0938 11.9006 22.7275 11.9583C22.6905 11.9657 22.6523 11.9696 22.613 11.9696Z" fill="black"/>
<path d="M11.251 8.33003H0.554116C0.248022 8.33003 0 8.09477 0 7.80457C0 7.51438 0.248022 7.27911 0.554116 7.27911H11.1439C11.1785 7.27266 11.2143 7.2693 11.251 7.2693C13.0589 7.2693 14.5297 5.87452 14.5297 4.16011C14.5297 2.44571 13.0589 1.05092 11.251 1.05092C9.44302 1.05092 7.97218 2.44571 7.97218 4.16011C7.97218 4.45031 7.72415 4.68557 7.41806 4.68557C7.11197 4.68557 6.86394 4.45031 6.86394 4.16011C6.86394 1.86623 8.83202 0 11.251 0C13.67 0 15.638 1.86623 15.638 4.16011C15.638 6.41777 13.7317 8.26116 11.3654 8.31882C11.3285 8.32611 11.2902 8.33003 11.251 8.33003Z" fill="black"/>
<path d="M18.041 23.0001C15.622 23.0001 13.6539 21.1338 13.6539 18.84C13.6539 18.5498 13.902 18.3145 14.2081 18.3145C14.5141 18.3145 14.7622 18.5498 14.7622 18.84C14.7622 20.5544 16.233 21.9491 18.041 21.9491C19.8489 21.9491 21.3197 20.5544 21.3197 18.84C21.3197 17.1255 19.8489 15.7308 18.041 15.7308H0.554116C0.248022 15.7308 0 15.4955 0 15.2053C0 14.9151 0.248022 14.6798 0.554116 14.6798H18.041C20.46 14.6798 22.428 16.5461 22.428 18.84C22.428 21.1338 20.46 23.0001 18.041 23.0001Z" fill="black"/>
</svg>

<svg xmlns="http://www.w3.org/2000/svg" fill="none" viewBox="0 0 27 23">
  <path fill="#000" d="M22.613 11.97H.554A.54.54 0 0 1 0 11.444a.54.54 0 0 1 .554-.525h21.952a.59.59 0 0 1 .107-.01c1.808 0 3.279-1.395 3.279-3.11 0-1.714-1.471-3.109-3.279-3.109-1.808 0-3.279 1.395-3.279 3.11a.54.54 0 0 1-.554.525.54.54 0 0 1-.554-.525c0-2.294 1.968-4.16 4.387-4.16C25.032 3.64 27 5.505 27 7.8c0 2.257-1.906 4.1-4.273 4.158a.583.583 0 0 1-.114.012Z"/>
  <path fill="#000" d="M11.251 8.33H.554A.54.54 0 0 1 0 7.805a.54.54 0 0 1 .554-.526h10.59a.584.584 0 0 1 .107-.01c1.808 0 3.279-1.394 3.279-3.109 0-1.714-1.471-3.11-3.279-3.11-1.808 0-3.279 1.396-3.279 3.11a.54.54 0 0 1-.554.526.54.54 0 0 1-.554-.526C6.864 1.866 8.832 0 11.25 0c2.419 0 4.387 1.866 4.387 4.16 0 2.258-1.906 4.101-4.273 4.159a.59.59 0 0 1-.114.011ZM18.041 23c-2.419 0-4.387-1.866-4.387-4.16a.54.54 0 0 1 .554-.526.54.54 0 0 1 .554.526c0 1.714 1.471 3.11 3.279 3.11 1.808 0 3.279-1.396 3.279-3.11 0-1.715-1.471-3.11-3.279-3.11H.554A.54.54 0 0 1 0 15.206a.54.54 0 0 1 .554-.525h17.487c2.419 0 4.387 1.866 4.387 4.16S20.46 23 18.041 23Z"/>
</svg>
